img/footer/twitter-icon.svg

<svg width="20" height="20" viewBox="0 0 20 20" fill="none" xmlns="http://www.w3.org/2000/svg">
<path d="M15.359 5.90097C15.9874 5.49332 16.4035 4.93692 16.6072 4.2293C15.9959 4.57202 15.387 4.80707 14.7788 4.93692C14.232 4.3156 13.5399 4 12.71 4C11.8988 4 11.2137 4.3008 10.6545 4.88597C10.0984 5.47524 9.81762 6.19108 9.81762 7.02692C9.81762 7.28087 9.84795 7.50771 9.90862 7.70002C7.5163 7.61373 5.53619 6.56503 3.97606 4.54654C3.71163 5.04048 3.57941 5.54346 3.57941 6.06369C3.57941 7.13294 4.00639 7.98028 4.85879 8.60242C4.3727 8.55887 3.94417 8.42901 3.57941 8.21615C3.57941 8.97966 3.79173 9.61742 4.21715 10.1788C4.64413 10.7343 5.19243 11.0886 5.86206 11.2398C5.61941 11.3055 5.36354 11.3368 5.10066 11.3368C4.85801 11.3368 4.68613 11.3154 4.58425 11.2685C4.76312 11.8907 5.10066 12.3953 5.5883 12.7816C6.07438 13.1695 6.63358 13.3742 7.26199 13.3922C6.22604 14.2511 5.04155 14.676 3.70152 14.676C3.37331 14.676 3.14077 14.671 3 14.6447C4.31982 15.5504 5.78896 16 7.41442 16C9.078 16 10.5479 15.5546 11.8273 14.6637C13.1067 13.7777 14.0508 12.6846 14.6575 11.3976C15.2672 10.1122 15.569 8.77419 15.569 7.37703V6.9924C16.1585 6.52394 16.6352 5.9963 17 5.4136C16.4711 5.65441 15.9244 5.81796 15.359 5.90097Z" fill="#75757F"/>
</svg>

<svg xmlns="http://www.w3.org/2000/svg" width="20" height="20" fill="none"><path fill="#75757F" d="M15.359 5.901a2.889 2.889 0 0 0 1.248-1.672 6.522 6.522 0 0 1-1.828.708A2.646 2.646 0 0 0 12.71 4c-.811 0-1.496.3-2.056.886-.556.59-.836 1.305-.836 2.14 0 .255.03.482.09.674-2.392-.086-4.372-1.135-5.932-3.153a3.17 3.17 0 0 0-.397 1.517c0 1.069.427 1.916 1.28 2.538a3.052 3.052 0 0 1-1.28-.386c0 .764.213 1.401.638 1.963.427.555.975.91 1.645 1.06a2.912 2.912 0 0 1-.761.098c-.243 0-.415-.022-.517-.069a2.907 2.907 0 0 0 1.004 1.514 2.744 2.744 0 0 0 1.674.61 5.412 5.412 0 0 1-3.56 1.284c-.329 0-.561-.005-.702-.031C4.32 15.55 5.789 16 7.414 16c1.664 0 3.134-.445 4.413-1.336 1.28-.886 2.224-1.98 2.83-3.266a9.263 9.263 0 0 0 .912-4.021v-.385A6.265 6.265 0 0 0 17 5.414a6.072 6.072 0 0 1-1.641.487Z"/></svg>
